static/watermark.svg

<svg width="42px" height="27px" viewBox="0 0 42 27" xmlns="http://www.w3.org/2000/svg" aria-hidden="true" focusable="false">
<g fill="#FFF" fill-rule="evenodd">
  <path d="M22.3511868 27c-.2807172 0-.5082834-.236341-.5082834-.5278823v-11.07761h-1.6858068v11.07761c0 .2915413-.2275662.5278823-.5082834.5278823-.2807172 0-.5082834-.236341-.5082834-.5278823v-11.07761h-2.0619365c-1.2451384 0-2.3676724-.7789745-2.8441662-1.9736889-.4764938-1.1947145-.2131101-2.5698902.6673356-3.48428506.8804458-.91439483 2.204565-1.1879343 3.3549228-.69306739 1.1503579.49486692 1.9004111 1.66068465 1.9004111 2.95383425v2.1414425h1.6858068v-2.1414425c0-1.2931496.7500532-2.45896733 1.9004111-2.95383425 1.1503578-.49486691 2.474477-.22132744 3.3549228.69306739.8804457.91439486 1.1438294 2.28957056.6673356 3.48428506-.4764938 1.1947144-1.5990278 1.9736889-2.8441662 1.9736889h-2.0619365v11.07761c0 .2915413-.2275662.5278823-.5082834.5278823zm.5082834-12.6612569h2.0619365c1.1387761 0 2.0619364-.9587565 2.0619364-2.1414425 0-1.1826861-.9231603-2.1414426-2.0619364-2.1414426-1.1387761 0-2.0619365.9587565-2.0619365 2.1414426v2.1414425zm-5.7808769-4.2793658c-1.1387761 0-2.0619364.9587564-2.0619364 2.1414425 0 1.182686.9231603 2.1414425 2.0619364 2.1414425h2.0619365v-2.1449617c-.0032647-1.1807086-.9250607-2.1364747-2.0619365-2.1379233z"/>
  <path d="M26.2253654 26.9995278c-.5747349 0-1.0406497-.4611725-1.0406497-1.0300576v-.4008641c-.0008175-.408613.2424571-.7790723.6200538-.9442196 4.3145229-1.8872464 7.098543-6.1156791 7.1006998-10.7847036 0-6.49708861-5.3411346-11.7838595-11.9050326-11.7838595S9.09540403 7.34431105 9.09540403 13.8413997c.00269128 4.6681989 2.78622397 8.8957346 7.09983267 10.7829868.3775966.1651473.6208713.5356066.6200537.9442196v.4008641c.0001457.3206933-.1506173.623158-.4078179.8181755-.2572007.1950175-.5914922.260336-.9042679.1766885-4.4028301-1.1927627-8.29713073-3.7645458-11.10026355-7.330577C1.53452054 15.997025-.01606946 11.5117107 0 6.89795274c0-1.48321317.159324-2.96222921.47535562-4.41208027.12141276-.55608522.67526891-.90945866 1.23707234-.78928168.56180342.12017698.9188106.66839582.79739784 1.22448103C.95230765 10.0469644 3.70848641 17.4205029 9.57670452 21.8269216c-1.66624784-2.3352972-2.56113379-5.1239671-2.5617327-7.9829468C7.01497182 6.21038926 13.2892223 0 21.0013039 0 28.7133854 0 34.987636 6.21038926 34.987636 13.8439748c-.0005114 2.8591251-.895735 5.6479031-2.5625999 7.9829468 5.8567381-4.3962627 8.6151505-11.7494335 7.076418-18.86378909-.109099-.55174218.2489148-1.08815807.8044404-1.2053015.5555255-.11714342 1.1033326.22826241 1.2308969.77611081C41.845102 3.96854983 42 5.43124548 42 6.89795274c.0156718 4.61369216-1.5348743 9.09887936-4.4029349 12.73580446-2.8034336 3.5657109-6.6976167 6.1374164-11.1002635 7.330577-.0885003.0236004-.1797806.0356658-.2714362.0351936z"/>
</g>
</svg>

<?xml version="1.0" encoding="UTF-8"?>
<svg width="42px" height="27px" viewBox="0 0 42 27" version="1.1" xmlns="http://www.w3.org/2000/svg" xmlns:xlink="http://www.w3.org/1999/xlink">
    <!-- Generator: Sketch 57.1 (83088) - https://sketch.com -->
    <title>logos/octopusthink copy</title>
    <desc>Created with Sketch.</desc>
    <g id="Page-1" stroke="none" stroke-width="1" fill="none" fill-rule="evenodd">
        <g id="logos/octopusthink-copy">
            <g id="horizontal">
                <path d="M22.3511868,27 C22.0704696,27 21.8429034,26.763659 21.8429034,26.4721177 L21.8429034,15.3945077 L20.1570966,15.3945077 L20.1570966,26.4721177 C20.1570966,26.763659 19.9295304,27 19.6488132,27 C19.368096,27 19.1405298,26.763659 19.1405298,26.4721177 L19.1405298,15.3945077 L17.0785933,15.3945077 C15.8334549,15.3945077 14.7109209,14.6155332 14.2344271,13.4208188 C13.7579333,12.2261043 14.021317,10.8509286 14.9017627,9.93653374 C15.7822085,9.02213891 17.1063277,8.74859944 18.2566855,9.24346635 C19.4070434,9.73833327 20.1570966,10.904151 20.1570966,12.1973006 L20.1570966,14.3387431 L21.8429034,14.3387431 L21.8429034,12.1973006 C21.8429034,10.904151 22.5929566,9.73833327 23.7433145,9.24346635 C24.8936723,8.74859944 26.2177915,9.02213891 27.0982373,9.93653374 C27.978683,10.8509286 28.2420667,12.2261043 27.7655729,13.4208188 C27.2890791,14.6155332 26.1665451,15.3945077 24.9214067,15.3945077 L22.8594702,15.3945077 L22.8594702,26.4721177 C22.8594702,26.763659 22.631904,27 22.3511868,27 L22.3511868,27 Z M22.8594702,14.3387431 L24.9214067,14.3387431 C26.0601828,14.3387431 26.9833431,13.3799866 26.9833431,12.1973006 C26.9833431,11.0146145 26.0601828,10.055858 24.9214067,10.055858 C23.7826306,10.055858 22.8594702,11.0146145 22.8594702,12.1973006 L22.8594702,14.3387431 Z M17.0785933,10.0593773 C15.9398172,10.0593773 15.0166569,11.0181337 15.0166569,12.2008198 C15.0166569,13.3835058 15.9398172,14.3422623 17.0785933,14.3422623 L19.1405298,14.3422623 L19.1405298,12.1973006 C19.1372651,11.016592 18.2154691,10.0608259 17.0785933,10.0593773 Z" id="Shape" fill="#FFFFFF"></path>
                <path d="M26.2253654,26.9995278 C25.6506305,26.9995278 25.1847157,26.5383553 25.1847157,25.9694702 L25.1847157,25.5686061 C25.1838982,25.1599931 25.4271728,24.7895338 25.8047695,24.6243865 C30.1192924,22.7371401 32.9033125,18.5087074 32.9054693,13.8396829 C32.9054693,7.34259429 27.5643347,2.0558234 21.0004367,2.0558234 C14.4365387,2.0558234 9.09540403,7.34431105 9.09540403,13.8413997 C9.09809531,18.5095986 11.881628,22.7371343 16.1952367,24.6243865 C16.5728333,24.7895338 16.816108,25.1599931 16.8152904,25.5686061 L16.8152904,25.9694702 C16.8154361,26.2901635 16.6646731,26.5926282 16.4074725,26.7876457 C16.1502718,26.9826632 15.8159803,27.0479817 15.5032046,26.9643342 C11.1003745,25.7715715 7.20607387,23.1997884 4.40294105,19.6337572 C1.53452054,15.997025 -0.0160694598,11.5117107 0,6.89795274 C0,5.41473957 0.159324003,3.93572353 0.475355617,2.48587247 C0.596768378,1.92978725 1.15062453,1.57641381 1.71242796,1.69659079 C2.27423138,1.81676777 2.63123856,2.36498661 2.5098258,2.92107182 C0.952307651,10.0469644 3.70848641,17.4205029 9.57670452,21.8269216 C7.91045668,19.4916244 7.01557073,16.7029545 7.01497182,13.8439748 C7.01497182,6.21038926 13.2892223,0 21.0013039,0 C28.7133854,0 34.987636,6.21038926 34.987636,13.8439748 C34.9871246,16.7030999 34.091901,19.4918779 32.4250361,21.8269216 C38.2817742,17.4306589 41.0401866,10.0774881 39.5014541,2.96313251 C39.3923551,2.41139033 39.7503689,1.87497444 40.3058945,1.75783101 C40.86142,1.64068759 41.4092271,1.98609342 41.5367914,2.53394182 C41.845102,3.96854983 42,5.43124548 42,6.89795274 C42.0156718,11.5116449 40.4651257,15.9968321 37.5970651,19.6337572 C34.7936315,23.1994681 30.8994484,25.7711736 26.4968016,26.9643342 C26.4083013,26.9879346 26.317021,27 26.2253654,26.9995278 Z" id="Path" fill="#FFFFFF"></path>
            </g>
        </g>
    </g>
</svg>
